svgs/sharp-regular/calendar-heart.svg

<svg xmlns="http://www.w3.org/2000/svg" viewBox="0 0 448 512"><!--! Font Awesome Pro 6.6.0 by @fontawesome - https://fontawesome.com License - https://fontawesome.com/license (Commercial License) Copyright 2024 Fonticons, Inc. --><path d="M152 0l0 24 0 40 144 0 0-40 0-24 48 0 0 24 0 40 104 0 0 80 0 48 0 272 0 48-48 0L48 512 0 512l0-48L0 192l0-48L0 64l104 0 0-40 0-24 48 0zM400 192L48 192l0 272 352 0 0-272zM112 299.2c0-32.7 26.5-59.2 59.2-59.2l2.4 0c15.9 0 31.2 6.2 42.7 17.2l7.7 7.4 7.7-7.4c11.5-11 26.8-17.2 42.7-17.2l2.4 0c32.7 0 59.2 26.5 59.2 59.2c0 16.1-6.6 31.5-18.2 42.7l-82.8 79.6L224 432.1l-11.1-10.7-82.8-79.6c-11.6-11.2-18.2-26.6-18.2-42.7z"/></svg>

<svg xmlns="http://www.w3.org/2000/svg" viewBox="0 0 448 512"><!--! Font Awesome Pro 6.4.2 by @fontawesome - https://fontawesome.com License - https://fontawesome.com/license (Commercial License) Copyright 2023 Fonticons, Inc. --><path d="M152 0V24 64H296V24 0h48V24 64H448v80 48V464v48H400 48 0V464 192 144 64H104V24 0h48zM400 192H48V464H400V192zM112 299.2c0-32.7 26.5-59.2 59.2-59.2h2.4c15.9 0 31.2 6.2 42.7 17.2l7.7 7.4 7.7-7.4c11.5-11 26.8-17.2 42.7-17.2h2.4c32.7 0 59.2 26.5 59.2 59.2c0 16.1-6.6 31.5-18.2 42.7l-82.8 79.6L224 432.1l-11.1-10.7-82.8-79.6c-11.6-11.2-18.2-26.6-18.2-42.7z"/></svg>
